X:1
T:Title
%%score 1 { ( 2 6 7 ) | ( 3 4 5 ) }
L:1/8
Q:1/4=100
M:4/4
K:Ab
V:1 treble nm="Akkordion"
V:2 treble nm="Grand Piano"
V:6 treble 
V:7 treble 
V:3 bass 
V:4 bass 
V:5 bass 
V:1
 A3 A A2 E2 | F2 G2 A4 | B3 B B2 A2 | G2 A2 B4 | c3 c B2 c2 | d2 A2 A2 AB | c2 c2 c3 B | A6 z2 | %8
w: Fred.~Schilling * * *||||||||
 B3 B B2 A2 | G2 A2 B4 | c3 c c2 B2 | A2 B2 c4 | =d3 d e2 B2 | B2 A2 G4 | FGBA G2 F2 | E6 z2 | %16
w: ||||||||
 EFGA B2 c2 | B3 A A4 | FG=AB c2 d2 | c3 B B4 | B3 B c2 d2 | e2 A2 A2 AB | c2 c2 c3 B | A6 z2 |] %24
w: ||||||||
V:2
 [CA]3 [CA] [CA]2 [A,E]2 | [A,F]2 [DG]2 [CA]4 | z4 B2 A2 | [B,EG]2 [B,=DA]2 [B,_DEB]4 | %4
 [CEc]3 [CEc] [B,EB]2 [EAc]2 | z4 A4 | z4 [DEGc]4 | A6 z2 | B3 B B-[=DB]EF | z4 B4[K:bass] | %10
 [=EBc]4 c2 B2 | A2 B2 c4 | [F=d]3 [FBd] [EBe]2 [B,EB]2 | [B,=DB]2 A2 G4 | z2 .[CEB]2 z4 | %15
 [G,E]2 E2 E2 E2 | [G,DE]FGA [DEGB]2 [DEGc]2 | [DEGB]3 [CEA] [CEA]4 | [=A,EF]G=AB c2 d2 | %19
 z4 [DFB]4 | z[K:bass] F,E,[K:treble][EGB] [EAc]2 [EGd]2 | [E_Gce]2 [CEA]2 [DA]2 AB | z4 c4 | %23
 A6 z2 |] %24
V:3
 [A,,E,]3 [A,,E,] [A,,E,]2 C,2 | z2 z E,- E,4 | [E,G,]3 [E,G,] F,-[B,,F,][C,E,]=D, | %3
 E,2 F,2 G,E,F,G, | A,3 A, G,2 _G,2 | F,2 [F,,F,]2 [=E,,=E,]4 | [E,,E,]2 E,F, G,2 z[K:treble] B | %7
 A,,2 [A,,F,]2 [A,,E,]2 z2 | [E,G,E]3 [E,G,E] F,-[B,,F,][C,E,]B,- | %9
 [E,B,E]2 [F,B,=D]2 E2- [E,,E-][D,,E] | %10
 [C,,C,]2 z[K:treble] [=EG] [F,A,F][K:bass][C,G,][=D,F,][=E,C] | [F,C]2 [G,C=E]2 [A,CF]4 | %12
 [B,,B,]3 [A,,A,] [G,,G,]2 [G,,G,]2 | [F,,F,]2 [F,B,=D]2 [=E,B,_D]4 | %14
 [F,A,CE][F,A,CE] z C B,,2 B,,2 | E,2 E,2 E,2 E,2 | z [A,D][B,D][CE] [E,,E,]2 [E,,E,]2 | %17
 [A,,E,]4 [A,,A,]2 [_G,,_G,]2 | z B,CD [=A,E]2 [F,EF]2 | F,3 B, z F,B,A,, | %20
 [G,,G,]F,,E,,[D,,D,] [C,,C,]2 [B,,,B,,]2 | [A,,,A,,]2 [_G,,_G,]2 [F,,F,]2 [=E,,=E,]2 | z4 G,2 z2 | %23
 E,2 z2 z4 |] %24
V:4
 x8 | D,C, z2 A,,4 | z4 .=D,2 z2 | x8 | x8 | x8 | z4 z2 E,,2[K:treble] | x8 | z4 .=D,2 z D, | %9
 z4 [G,B,]2 z2 | z2 C,2[K:treble] z4[K:bass] | x8 | x8 | x8 | z2 F,,2 z4 | x8 | [E,,E,]4 z4 | x8 | %18
 [F,,F,]4 F,,4 | B,,4 B,,4 | x8 | x8 | [E,,E,]2 E,F, [E,,DEG]4 | A,,2- [A,,-F,]2 [A,,E,]2 z2 |] %24
V:5
 x8 | z2 B,,2 z4 | x8 | x8 | x8 | x8 | x7[K:treble] x | x8 | x8 | x8 | x3[K:treble] x2[K:bass] x3 | %11
 x8 | x8 | x8 | x8 | x8 | x8 | x8 | x8 | x8 | x8 | x8 | x8 | x8 |] %24
V:6
 x8 | x8 | [EB]3 [EB] F=DE[B,F] | x8 | x8 | [DAd]2 [DA]2 =D3- [DB] | [EAc]2 [EAc]2 z2 E,2 | %7
 [CE]2 D2 C2 z2 | z4 .F2 A2 | G2 A2 z2[K:bass] E,D, | z2 z c z =EFG | x8 | x8 | x8 | %14
 FGA,-[A,EA] [A,=DG]2 [A,DF]2 | x8 | x8 | x8 | x8 | [EFc]3 [DFB] .B,2 z A, | %20
 [DEB]4[K:bass][K:treble] z4 | z4 z2 =D2 | [EAc]2 [EAc]2 z2 z B | [CE]2 D2 C2 z2 |] %24
V:7
 x8 | x8 | x8 | x8 | x8 | x8 | x8 | x8 | x8 | x6[K:bass] x2 | z2 B,2 z4 | x8 | x8 | x8 | x8 | x8 | %16
 x8 | x8 | x8 | x8 | x[K:bass] x2[K:treble] x5 | x8 | z4 z2 E,2 | x8 |] %24

